X:1
T:Reviving Light, 66.866
T:Reviving Light, 66.866
T:Harmonia Sacra, 19th Century
T:Public Domain Courtesy of the Cyber Hymnal™
C:Harmonia Sacra, 19th Century
Z:Public Domain
Z:Courtesy of the Cyber Hymnal™
%%score ( 1 2 ) ( 3 4 )
L:1/8
Q:1/4=135
M:2/2
K:E
V:1 treble 
V:2 treble 
V:3 bass 
V:4 bass 
V:1
 E4 E2 F2 | [EG]4 [DF]4 | !fermata!E4 [GB]4 | [Ae]4 [Bd]2 [Ac]2 | [=FB]4 ^A4 | !fermata![GB]8 | %6
 E4 [EG]2 [DB]2 | [Ee]4 [GB]4 | [Ec]4 d4 | !fermata![Ge]4 [GB]4 | [GB]6 [EG]2 | [FA]4 B4 | %12
 [Ec]6 [Gd]2 | [Ge]2 [Ac]2 [GB]2 [FA]2 | [EG]4 [DF]4 | E8 |] %16
V:2
 E4 E2 F2 | x8 | E4 x4 | x8 | x4 ^A4 | x8 | E4 x4 | x8 | x4 (F2 A2) | x8 | x8 | x4 (E2 D2) | x8 | %13
 x8 | x8 | E8 |] %16
V:3
 [E,G,]4 [C,G,]2 [A,,C]2 | [B,,B,]4 [B,,B,]4 | !fermata![E,G,]4 [E,G,]4 | [C,C]4 [D,B,]2 [E,C]2 | %4
 [F,D]4 [F,C]4 | !fermata![B,,B,]8 | [E,B,]4 [G,B,]2 [F,B,]2 | B,2 C2 [G,D]4 | [A,E]4 (D2 C2) | %9
 !fermata![E,B,]4 [E,G,]4 | [E,G,]6 [E,B,]2 | [F,C]4 B,4 | [C,G,]6 [G,B,]2 | %13
 [E,B,]2 [F,C]2 [G,D]2 [A,E]2 | B,4 [B,,B,]4 | [E,G,]8 |] %16
V:4
 x8 | x8 | x8 | x8 | x8 | x8 | x8 | E,4 x4 | x4 F,4 | x8 | x8 | x4 (E,2 D,2) | x8 | x8 | B,4 x4 | %15
 x8 |] %16

